svgs/sharp-regular/heading.svg

<svg xmlns="http://www.w3.org/2000/svg" viewBox="0 0 448 512"><!--! Font Awesome Pro 6.6.0 by @fontawesome - https://fontawesome.com License - https://fontawesome.com/license (Commercial License) Copyright 2024 Fonticons, Inc. --><path d="M0 32l24 0 112 0 24 0 0 48-24 0-32 0 0 144 240 0 0-144-32 0-24 0 0-48 24 0 112 0 24 0 0 48-24 0-32 0 0 168 0 184 32 0 24 0 0 48-24 0-112 0-24 0 0-48 24 0 32 0 0-160-240 0 0 160 32 0 24 0 0 48-24 0L24 480 0 480l0-48 24 0 32 0 0-184L56 80 24 80 0 80 0 32z"/></svg>

<svg xmlns="http://www.w3.org/2000/svg" viewBox="0 0 448 512"><!--! Font Awesome Pro 6.4.0 by @fontawesome - https://fontawesome.com License - https://fontawesome.com/license (Commercial License) Copyright 2023 Fonticons, Inc. --><path d="M0 32H24 136h24V80H136 104V224H344V80H312 288V32h24H424h24V80H424 392V248 432h32 24v48H424 312 288V432h24 32V272H104V432h32 24v48H136 24 0V432H24 56V248 80H24 0V32z"/></svg>
